packages/symbols/svgs/duotone/more-vert-duotone.svg

<svg width="24" height="24" viewBox="0 0 24 24" xmlns="http://www.w3.org/2000/svg"><path opacity=".5" d="M12 16c-1.1 0-2 .9-2 2s.9 2 2 2 2-.9 2-2-.9-2-2-2Z"/><path d="M10 12c0-1.1.9-2 2-2s2 .9 2 2-.9 2-2 2-2-.9-2-2Z"/><path opacity=".5" d="M14 6c0 1.1-.9 2-2 2s-2-.9-2-2 .9-2 2-2 2 .9 2 2Z"/></svg>

<svg width="24" height="24" viewBox="0 0 24 24" fill="none" xmlns="http://www.w3.org/2000/svg">
<path opacity="0.5" d="M12 16C10.9 16 10 16.9 10 18C10 19.1 10.9 20 12 20C13.1 20 14 19.1 14 18C14 16.9 13.1 16 12 16Z" fill="black"/>
<path d="M10 12C10 10.9 10.9 10 12 10C13.1 10 14 10.9 14 12C14 13.1 13.1 14 12 14C10.9 14 10 13.1 10 12Z" fill="black"/>
<path opacity="0.5" d="M14 6C14 7.1 13.1 8 12 8C10.9 8 10 7.1 10 6C10 4.9 10.9 4 12 4C13.1 4 14 4.9 14 6Z" fill="black"/>
</svg>
